src/assets/curso/temas/tema6/img_06.svg

<svg height="132" viewBox="0 0 132 132" width="132" xmlns="http://www.w3.org/2000/svg"><path d="m0 0h132v132h-132z" fill="none"/><path d="m61.042 66.026a4.976 4.976 0 0 1 -7.071 0l-17.201-17.185 7.071-7.071 17.2 17.2a4.986 4.986 0 0 1 0 7.055z" fill="#02a9f4" transform="translate(39.56 44.036)"/><path d="m59.309 58.971-17.2-17.2-2.379 2.377 14.823 14.823a4.986 4.986 0 0 1 0 7.055 4.716 4.716 0 0 1 -1.157.851 4.963 4.963 0 0 0 2.378.623 4.88 4.88 0 0 0 3.535-1.474 4.986 4.986 0 0 0 0-7.055z" fill="#0377bc" transform="translate(41.293 44.036)"/><path d="m46.206 44.135-7.071 7.071-6.4-6.4a30.545 30.545 0 0 0 7.065-7.076z" fill="#ffdc00" transform="translate(37.195 41.671)"/><path d="m64.422 37.708a31.493 31.493 0 0 1 -6.04 18.6 30.545 30.545 0 0 1 -7.071 7.071 31.707 31.707 0 1 1 .889-50.672h.016a20.04 20.04 0 0 0 -.476 4.391 20.635 20.635 0 0 0 12.634 19.009c.032.539.048 1.062.048 1.6z" fill="#9e9e9e" transform="translate(18.615 23.097)"/><path d="m53.463 36.106a20.635 20.635 0 0 1 -12.635-19.006 20.041 20.041 0 0 1 .476-4.391h-.016a31.549 31.549 0 0 0 -19.488-6.709c-.734 0-1.454.06-2.175.109a31.533 31.533 0 0 1 16.9 6.6h.016a20.041 20.041 0 0 0 -.476 4.391 20.635 20.635 0 0 0 12.642 19.006c.032.539.048 1.062.048 1.6a31.493 31.493 0 0 1 -6.04 18.6 30.545 30.545 0 0 1 -7.071 7.071 31.473 31.473 0 0 1 -15.981 5.932c.71.048 1.417.108 2.14.108a31.493 31.493 0 0 0 18.6-6.04 30.545 30.545 0 0 0 7.067-7.077 31.493 31.493 0 0 0 6.04-18.6c0-.532-.015-1.055-.047-1.594z" fill="#707070" transform="translate(29.526 23.097)"/><path d="m74.22 20.606a20.61 20.61 0 1 1 -18.402-20.48 20.61 20.61 0 0 1 18.4 20.481z" fill="#60a917" transform="translate(37.353 19.589)"/><path d="m46.877 0a20.689 20.689 0 0 0 -2.361.151 20.6 20.6 0 0 1 -.016 40.92 20.61 20.61 0 1 0 2.378-41.071z" fill="#549414" transform="translate(44.085 19.585)"/><path d="m55.734 35.366a25.366 25.366 0 0 1 -10.86 20.8h-.016a29.389 29.389 0 0 0 -14.49-3.361 29.39 29.39 0 0 0 -14.49 3.361h-.016a25.358 25.358 0 1 1 34.006-37 20.654 20.654 0 0 0 4.962 9.528 25.03 25.03 0 0 1 .9 6.674z" fill="#00bcd4" transform="translate(20.96 25.438)"/><path d="m46.389 28.691a20.654 20.654 0 0 1 -4.962-9.528 25.323 25.323 0 0 0 -19.5-9.163c-.848 0-1.685.046-2.511.127a25.334 25.334 0 0 1 17.255 9.037 20.654 20.654 0 0 0 4.962 9.528 25.03 25.03 0 0 1 .9 6.674 25.314 25.314 0 0 1 -9.057 19.4 19.586 19.586 0 0 1 2.938 1.4h.016a25.366 25.366 0 0 0 10.86-20.8 25.03 25.03 0 0 0 -.901-6.675z" fill="#00838f" transform="translate(29.401 25.439)"/><path d="m40.841 40.365a25.276 25.276 0 0 1 -28.981 0 29.389 29.389 0 0 1 14.49-3.365 29.39 29.39 0 0 1 14.491 3.365z" fill="#a0522d" transform="translate(24.978 41.24)"/><path d="m25.676 33.858a5.76 5.76 0 0 0 7.489-.306 11.606 11.606 0 0 0 3.518-8.488 1.126 1.126 0 0 0 -1.539-.991c-2.7.961-5.715-.132-9.17 2.432a4.626 4.626 0 0 0 -.3 7.353z" fill="#60a917" transform="translate(32.085 33.63)"/><path d="m21.008 30.858a5.76 5.76 0 0 1 -7.489-.306 11.606 11.606 0 0 1 -3.519-8.488 1.126 1.126 0 0 1 1.539-.991c2.7.961 5.715-.132 9.17 2.432a4.626 4.626 0 0 1 .3 7.353z" fill="#60a917" transform="translate(23.89 31.874)"/><path d="m27.226 14a20.572 20.572 0 0 0 -13.618 5.152 1.585 1.585 0 1 0 2.1 2.378 17.407 17.407 0 0 1 11.521-4.36 1.585 1.585 0 0 0 0-3.171z" fill="#fff" transform="translate(24.103 26.195)"/><path d="m73.941 0a22.22 22.22 0 0 0 -21.051 15.207 32.878 32.878 0 0 0 -18.584-5.695 33.293 33.293 0 1 0 18.407 61.012l5.466 5.463.008.011.011.008 17.17 17.158a6.579 6.579 0 1 0 9.332-9.277l-22.672-22.671a33.077 33.077 0 0 0 5.541-17.756 22.2 22.2 0 1 0 6.372-43.46zm-16.629 36.846a23.606 23.606 0 0 1 -8.661 24.881 31.184 31.184 0 0 0 -12.659-3.027 11.784 11.784 0 0 1 4-7.814 6.817 6.817 0 0 0 4.19 1.408 7.721 7.721 0 0 0 5.1-1.934 13.239 13.239 0 0 0 4.051-9.637 2.6 2.6 0 0 0 -1.089-2.153 2.779 2.779 0 0 0 -2.567-.363 10.356 10.356 0 0 1 -2.677.425 12.006 12.006 0 0 0 -6.907 2.227 6.319 6.319 0 0 0 -2.617 4.823 6.107 6.107 0 0 0 .528 2.732 15.326 15.326 0 0 0 -3.534 4.428 28.526 28.526 0 0 0 -4.412-8.257 6.15 6.15 0 0 0 1.076-3.659 6.319 6.319 0 0 0 -2.61-4.821 12.012 12.012 0 0 0 -6.911-2.229 10.356 10.356 0 0 1 -2.673-.422 2.787 2.787 0 0 0 -2.567.363 2.6 2.6 0 0 0 -1.094 2.155 13.239 13.239 0 0 0 4.052 9.642 7.716 7.716 0 0 0 5.1 1.933 7.017 7.017 0 0 0 3.282-.812 25.621 25.621 0 0 1 4.881 11.971 31.168 31.168 0 0 0 -12.632 3.02 23.752 23.752 0 1 1 32.426-34.326 22.111 22.111 0 0 0 4.924 9.444zm-23.005 24.983a30.989 30.989 0 0 1 11.2 1.942 23.7 23.7 0 0 1 -22.4 0 30.989 30.989 0 0 1 11.2-1.942zm6.341-16.012a3.171 3.171 0 0 1 1.332-2.4 8.96 8.96 0 0 1 5.26-1.617 15.453 15.453 0 0 0 2.884-.406 9.759 9.759 0 0 1 -2.949 6.606 4.168 4.168 0 0 1 -5.39.3 3.107 3.107 0 0 1 -1.137-2.484zm-19.21-2.576a9.76 9.76 0 0 1 -2.95-6.609 15.453 15.453 0 0 0 2.884.406 8.967 8.967 0 0 1 5.263 1.617 3.171 3.171 0 0 1 1.33 2.407 3.107 3.107 0 0 1 -1.13 2.484 4.163 4.163 0 0 1 -5.4-.3zm61 47.72a3.458 3.458 0 0 1 -4.81-.021l-16.075-16.066 4.826-4.826 16.08 16.08a3.413 3.413 0 0 1 -.019 4.832zm-18.3-23.154-4.827 4.827-4.017-4.014a33.574 33.574 0 0 0 4.827-4.829zm.292-25a30.122 30.122 0 1 1 -30.124-30.124 29.746 29.746 0 0 1 17.769 5.839 22.273 22.273 0 0 0 -.33 3.673v.135a26.912 26.912 0 1 0 -32.958 42.47 1.673 1.673 0 0 0 .159.119 26.828 26.828 0 0 0 30.618.081 1.542 1.542 0 0 0 .369-.274 26.918 26.918 0 0 0 11.325-21.921c0-.843-.054-1.684-.133-2.522a22 22 0 0 0 3.286 1.928c0 .2.017.395.017.595zm9.512-1.585a19.024 19.024 0 1 1 19.023-19.022 19.024 19.024 0 0 1 -19.024 19.02z" transform="translate(17.023 18)"/><path d="m57.311 9.457-11.562 11.562-2.049-2.049a1.585 1.585 0 0 0 -2.242 2.242l3.171 3.171a1.585 1.585 0 0 0 2.242 0l12.682-12.683a1.585 1.585 0 0 0 -2.242-2.242z" transform="translate(40.458 23.276)"/></svg>

<svg xmlns="http://www.w3.org/2000/svg" width="132" height="132" viewBox="0 0 132 132"><g transform="translate(-1162.051 -3110)"><rect width="132" height="132" transform="translate(1162.051 3110)" fill="none"/><g transform="translate(1179.074 3128)"><g transform="translate(0.976 0)"><g transform="translate(1.604 1.585)"><path d="M61.042,66.026a4.976,4.976,0,0,1-7.071,0L36.77,48.841l7.071-7.071,17.2,17.2a4.986,4.986,0,0,1,0,7.055Z" transform="translate(19.957 24.451)" fill="#02a9f4"/><path d="M59.309,58.971l-17.2-17.2L39.73,44.148,54.553,58.971a4.986,4.986,0,0,1,0,7.055,4.716,4.716,0,0,1-1.157.851,4.963,4.963,0,0,0,2.378.623,4.88,4.88,0,0,0,3.535-1.474,4.986,4.986,0,0,0,0-7.055Z" transform="translate(21.69 24.451)" fill="#0377bc"/><path d="M46.206,44.135l-7.071,7.071-6.4-6.4A30.545,30.545,0,0,0,39.8,37.73Z" transform="translate(17.592 22.086)" fill="#ffdc00"/><path d="M64.422,37.708a31.493,31.493,0,0,1-6.04,18.6,30.545,30.545,0,0,1-7.071,7.071A31.707,31.707,0,1,1,52.2,12.707h.016a20.04,20.04,0,0,0-.476,4.391A20.635,20.635,0,0,0,64.374,36.107c.032.539.048,1.062.048,1.6Z" transform="translate(-0.988 3.512)" fill="#9e9e9e"/><path d="M53.463,36.106A20.635,20.635,0,0,1,40.828,17.1a20.041,20.041,0,0,1,.476-4.391h-.016A31.549,31.549,0,0,0,21.8,6c-.734,0-1.454.06-2.175.109a31.533,31.533,0,0,1,16.9,6.6h.016a20.041,20.041,0,0,0-.476,4.391A20.635,20.635,0,0,0,48.707,36.106c.032.539.048,1.062.048,1.6a31.493,31.493,0,0,1-6.04,18.6,30.545,30.545,0,0,1-7.071,7.071,31.473,31.473,0,0,1-15.981,5.932c.71.048,1.417.108,2.14.108a31.493,31.493,0,0,0,18.6-6.04A30.545,30.545,0,0,0,47.47,56.3a31.493,31.493,0,0,0,6.04-18.6C53.51,37.168,53.495,36.645,53.463,36.106Z" transform="translate(9.923 3.512)" fill="#707070"/><path d="M74.22,20.606A20.61,20.61,0,1,1,55.818.126a20.61,20.61,0,0,1,18.4,20.481Z" transform="translate(17.75 0.004)" fill="#60a917"/><path d="M46.877,0a20.689,20.689,0,0,0-2.361.151,20.6,20.6,0,0,1-.016,40.92A20.61,20.61,0,1,0,46.878,0Z" transform="translate(24.482 0)" fill="#549414"/><path d="M55.734,35.366a25.366,25.366,0,0,1-10.86,20.8h-.016a29.389,29.389,0,0,0-14.49-3.361,29.39,29.39,0,0,0-14.49,3.361h-.016a25.358,25.358,0,1,1,34.006-37,20.654,20.654,0,0,0,4.962,9.528,25.03,25.03,0,0,1,.9,6.674Z" transform="translate(1.357 5.853)" fill="#00bcd4"/><path d="M46.389,28.691a20.654,20.654,0,0,1-4.962-9.528A25.323,25.323,0,0,0,21.927,10c-.848,0-1.685.046-2.511.127a25.334,25.334,0,0,1,17.255,9.037,20.654,20.654,0,0,0,4.962,9.528,25.03,25.03,0,0,1,.9,6.674,25.314,25.314,0,0,1-9.057,19.4,19.586,19.586,0,0,1,2.938,1.4h.016a25.366,25.366,0,0,0,10.86-20.8A25.03,25.03,0,0,0,46.389,28.691Z" transform="translate(9.798 5.854)" fill="#00838f"/><path d="M40.841,40.365a25.276,25.276,0,0,1-28.981,0A29.389,29.389,0,0,1,26.35,37,29.39,29.39,0,0,1,40.841,40.365Z" transform="translate(5.375 21.655)" fill="sienna"/><g transform="translate(14.286 33.283)"><path d="M25.676,33.858a5.76,5.76,0,0,0,7.489-.306,11.606,11.606,0,0,0,3.518-8.488,1.126,1.126,0,0,0-1.539-.991c-2.7.961-5.715-.132-9.17,2.432a4.626,4.626,0,0,0-.3,7.353Z" transform="translate(-1.804 -19.238)" fill="#60a917"/><path d="M21.008,30.858a5.76,5.76,0,0,1-7.489-.306A11.606,11.606,0,0,1,10,22.064a1.126,1.126,0,0,1,1.539-.991c2.7.961,5.715-.132,9.17,2.432a4.626,4.626,0,0,1,.3,7.353Z" transform="translate(-9.999 -20.994)" fill="#60a917"/></g></g><path d="M27.226,14a20.572,20.572,0,0,0-13.618,5.152,1.585,1.585,0,1,0,2.1,2.378,17.407,17.407,0,0,1,11.521-4.36,1.585,1.585,0,0,0,0-3.171Z" transform="translate(6.104 8.195)" fill="#fff"/><path d="M73.941,0A22.22,22.22,0,0,0,52.89,15.207,32.878,32.878,0,0,0,34.306,9.512,33.293,33.293,0,1,0,52.713,70.524l5.466,5.463.008.011.011.008,17.17,17.158A6.579,6.579,0,1,0,84.7,83.887L62.028,61.216A33.077,33.077,0,0,0,67.569,43.46,22.2,22.2,0,1,0,73.941,0ZM57.312,36.846a23.606,23.606,0,0,1-8.661,24.881A31.184,31.184,0,0,0,35.992,58.7a11.784,11.784,0,0,1,4-7.814,6.817,6.817,0,0,0,4.19,1.408,7.721,7.721,0,0,0,5.1-1.934,13.239,13.239,0,0,0,4.051-9.637,2.6,2.6,0,0,0-1.089-2.153,2.779,2.779,0,0,0-2.567-.363A10.356,10.356,0,0,1,47,38.632a12.006,12.006,0,0,0-6.907,2.227,6.319,6.319,0,0,0-2.617,4.823,6.107,6.107,0,0,0,.528,2.732,15.326,15.326,0,0,0-3.534,4.428,28.526,28.526,0,0,0-4.412-8.257,6.15,6.15,0,0,0,1.076-3.659,6.319,6.319,0,0,0-2.61-4.821,12.012,12.012,0,0,0-6.911-2.229,10.356,10.356,0,0,1-2.673-.422,2.787,2.787,0,0,0-2.567.363,2.6,2.6,0,0,0-1.094,2.155,13.239,13.239,0,0,0,4.052,9.642,7.716,7.716,0,0,0,5.1,1.933,7.017,7.017,0,0,0,3.282-.812,25.621,25.621,0,0,1,4.881,11.971,31.168,31.168,0,0,0-12.632,3.02A23.752,23.752,0,1,1,52.388,27.4a22.111,22.111,0,0,0,4.924,9.444ZM34.307,61.829a30.989,30.989,0,0,1,11.2,1.942,23.7,23.7,0,0,1-22.4,0A30.989,30.989,0,0,1,34.307,61.829Zm6.341-16.012a3.171,3.171,0,0,1,1.332-2.4A8.96,8.96,0,0,1,47.24,41.8a15.453,15.453,0,0,0,2.884-.406A9.759,9.759,0,0,1,47.175,48a4.168,4.168,0,0,1-5.39.3,3.107,3.107,0,0,1-1.137-2.484Zm-19.21-2.576a9.76,9.76,0,0,1-2.95-6.609,15.453,15.453,0,0,0,2.884.406,8.967,8.967,0,0,1,5.263,1.617,3.171,3.171,0,0,1,1.33,2.407,3.107,3.107,0,0,1-1.13,2.484,4.163,4.163,0,0,1-5.4-.3Zm61,47.72a3.458,3.458,0,0,1-4.81-.021L61.553,74.874l4.826-4.826,16.08,16.08a3.413,3.413,0,0,1-.019,4.832Zm-18.3-23.154-4.827,4.827L55.294,68.62a33.574,33.574,0,0,0,4.827-4.829Zm.292-25A30.122,30.122,0,1,1,34.306,12.683a29.746,29.746,0,0,1,17.769,5.839,22.273,22.273,0,0,0-.33,3.673v.135A26.912,26.912,0,1,0,18.787,64.8a1.673,1.673,0,0,0,.159.119A26.828,26.828,0,0,0,49.564,65a1.542,1.542,0,0,0,.369-.274A26.918,26.918,0,0,0,61.258,42.805c0-.843-.054-1.684-.133-2.522a22,22,0,0,0,3.286,1.928c0,.2.017.395.017.595Zm9.512-1.585A19.024,19.024,0,1,1,92.965,22.2,19.024,19.024,0,0,1,73.941,41.22Z" transform="translate(-0.976 0)"/><path d="M57.311,9.457,45.749,21.019,43.7,18.97a1.585,1.585,0,0,0-2.242,2.242l3.171,3.171a1.585,1.585,0,0,0,2.242,0L59.553,11.7a1.585,1.585,0,0,0-2.242-2.242Z" transform="translate(22.459 5.276)"/></g></g></g></svg>
